!!!COM: Music21
!!!OTL: barndance_Bourrée
!!!OMV: barndance_Bourrée
**kern
*clefG2
*k[f#]
*e:
*M4/4
=1
8eeL
8ff#J
=
4gg
8ggL
16ff#L
16eeJJ
4dd#X
8eeL
8ff#J
=
4b
8cc#XL
8dd#XJ
[4ee
8eeL]
16ddnL
16ccnJJ
=
4b
8bL
16aL
16gJJ
4f#
8gL
8aJ
=
8bL
8aJ
8gL
8f#J
8eL
8bJ
8eeL
8ff#J
!!linebreak:original
=
4gg
8ggL
16ff#L
16eeJJ
4dd#X
8eeL
8ff#J
=
8bL
[8cc#XJ
8cc#L]
8dd#XJ
4ee
8eeL
16ddnL
16ccnJJ
=
4b
8bL
16aL
16gJJ
8c
4.f#
=
*M1/8
8g
=
*M4/4
2.g
4ryy
=
8eeL
8ff#J
2.ryy
!!linebreak:original
=
4gg
8ggL
16ff#L
16eeJJ
4dd#X
8eeL
8ff#J
=
8bL
[8cc#XJ
8cc#L]
8dd#XJ
[4ee
8eeL]
16ddnL
16ccnJJ
=
4b
8bL
16aL
16gJJ
4f#
8gL
8aJ
=
8bL
8aJ
8gL
8f#J
8eL
8bJ
8eeL
8ff#J
!!linebreak:original
=
4gg
8ggL
16ff#L
16eeJJ
4dd#X
8eeL
8ff#J
=
8bL
[8cc#XJ
8cc#L]
8dd#XJ
4ee
8eeL
16ddnL
16ccnJJ
=
4b
8bL
16aL
16gJJ
4.f#
8g
=
2.g
4ryy
=
8bL
8gJ
2.ryy
=
4dd
8aL
8ccJ
8b
4gg
8dd
!!linebreak:original
=
4ee
8bL
8ddJ
4cc
8bL
8aJ
=
4g#X
8aL
8bJ
8ccL
8ccJ
8bL
8aJ
=
[2a
4a]
8ddL
8aJ
=
8b
4gg
8dd
4ee
8bL
8ddJ
=
8cc#XL
8eeJ
8aaL
8eeJ
4ff#
8cc#L
8eeJ
=
8ddL
8ddJ
8cc#XL
8bJ
4.a#X
8b
!!linebreak:original
=
[2b
8bL]
8ff#J
8bbL
8ff#J
=
4gg#X
8ff#L
8eeJ
4aa
8eeL
8ggnJ
=
4ff#
8eeL
8ddJ
4gg
8ddL
8ffnJ
=
8ee
4aa
8ee
4ff#
8cc#XL
8eeJ
=
4dd#X
4b
4b
8eeL
8bJ
=
4cc
8ddL
8aJ
4b
8ccL
8gJ
!!linebreak:original
=
4a
8bL
8f#J
4g
8f#L
8eJ
=
4d#X
8eL
8f#J
4g
8f#L
8eJ
=
2.e
4ryy
=
*-
